waypoint


pre grab 0.30992269516 -1.76807751278 -1.43605136871 -1.50965197504 1.57104492188 1.88317918777

grab [0.310078620911, -2.02874197582, -1.86483097076, -0.820236043339, 1.57109260559, 1.88338327408]

up 0.31107378005, -1.7961803875, -1.0902395248, -1.827400823, 1.5715489387, 1.8825421333



waypoint1 = [-0.22529, -1.9370, -0.90308, -1.8737, 1.5711, 1.3456]


waypoint2 = [-0.48897, -1.7997, -1.0857, -1.8283, 1.5712, 1.0824]


waypoint3 = [-1.0540, -1.7829, -1.0501, -1.8805, 1.571, 0.5172]



goal = [-1.40061551729, -1.88636412243 ,-0.918344497681 ,-1.90896381954, 1.5708527565 ,0.170357227325]




mid grip  =	[0.159, -2.027, -1.8669, -0.819, 1.571, 1.7332]

waypoint1 = [-0.22529, -1.9370, -0.90308, -1.8737, 1.5711, 1.3456]

waypoint2 = [-0.406, -1.954, -0.877, -1.8811, 1.5710, 1.16406]

waypoint3 = [-0.4849, -1.9116, -0.9383, -1.8636, 1.5710, 1.08604]

waypoint4 = [-0.641, -2.06462, -0.7144, -1.934, 1.570, 0.9285]

waypoint4 = [-0.8742, -1.9357, -0.9049, -1.8730, 1.5709, 0.6966]

goal1 =   [-1.42738, -2.15893, -0.56316, -1.9913, 1.57056, 0.14275]

goal2 = [-1.442 -1.940 -1.070 -1.489 1.553 0.0807]
#######################


import urx
import time

robot = urx.URRobot("192.168.13.100", use_rt = True)

mid_grip  =	[0.159, -2.027, -1.8669, -0.819, 1.571, 1.7332]

waypoint1 = [-0.22529, -1.9370, -0.90308, -1.8737, 1.5711, 1.3456]

waypoint2 = [-0.406, -1.954, -0.877, -1.8811, 1.5710, 1.16406]

waypoint3 = [-0.4849, -1.9116, -0.9383, -1.8636, 1.5710, 1.08604]

waypoint4 = [-0.641, -2.06462, -0.7144, -1.934, 1.570, 0.9285]

waypoint4 = [-0.8742, -1.9357, -0.9049, -1.8730, 1.5709, 0.6966]

goal = [-1.42738, -2.15893, -0.56316, -1.9913, 1.57056, 0.14275]

goal2 = [-1.442 -1.940 -1.070 -1.489 1.553 0.0807]


robot.movej([0.30992269516, -1.76807751278, -1.43605136871, -1.50965197504, 1.57104492188, 1.88317918777], 1, 1)

robot.movej(mid_grip, 1, 1)

start = robot.getl()

start[2] += 0.4

robot.movel(start, 1, 1)

robot.movej(waypoint1, 1, 1)
robot.movej(waypoint2, 1, 1)
robot.movej(waypoint3, 1, 1)
robot.movej(waypoint4, 1, 1)
robot.movej(goal1, 1, 1)
robot.movej(goal1, 1, 1)

robot.send_program("zero_ftsensor()")
time.sleep(0.1)

force_mod = [0,0,1,1,0,0]
force_toq = [0,0,-15,0,0,0] 

cmd_str  = "def go_down():"
cmd_str += "\tforce_mode_set_damping(0.05)\n"
cmd_str += "\twhile (True):\n"
cmd_str += "\t\tforce_mode(p[0.0,0.0,0.0,0.0,0.0,0.0], "+str(force_mod) +"," + str(force_toq) +", 2, [0.1, 0.1, 0.15, 0.17, 0.17, 0.17])\n"
cmd_str += "\t\tsync()\n"
cmd_str += "\tend\n"
cmd_str += "end\n"

robot.send_program(cmd_str)